**kern	**kern	**dynam
*part1	*part1	*part1
*staff2	*staff1	*
*I"Piano	*	*
*clefF4	*clefG2	*
*k[b-e-a-d-]	*k[b-e-a-d-]	*
=1	=1	=1
*^	*^	*
2A-	[1D-	(2dd-	2f	mf
2B-	.	4cc	2g-X	.
.	.	4b-	.	.
=	=	=	=	=
(2A-	1D-_	(2dd-	(2f	.
2G-X)	.	2a-)	2e-)	.
=	=	=	=	=
1A-	2D-]	1f)	1d-	.
.	4BB-	.	.	.
.	4D-	.	.	.
=	=	=	=	=
2Gn	2.E-	2e-	2B-	.
4B-	.	4gn	4e-	<
4e-	4d-	4b-	4g	.
=	=	=	=	=
(2e-	4c	(2ee-	2a-	[ f
.	4E-	.	.	.
2A-)	4A-	2cc)	2e-	.
.	[4AA-	.	.	.
=	=	=	=	=
(4E-	1AA-_	[1a-	(4c	>
4F	.	.	4d-	.
4E-	.	.	4c	.
4D-)	.	.	4B-)	.
=	=	=	=	=
2E-	2AA-]	2a-]	2c	] pp
2r	2ryy	2r	2ryy	.
*v	*v	*	*	*
*	*v	*v	*
==	==	==
*-	*-	*-
!!!system-decoration: {(s1,s2)}
